!!!COM:	Martini, Johannes
!!!CDT:	~1440///-~1497//
!!!OTL:	Le pouvert&eacute;
!!!AGN:	Song; Chanson
!!!SCT:	Mar3019
!!!SCA:	Mar3019
!!!voices:	3
**kern	**kern	**kern
*staff3	*staff2	*staff1
*Ivox	*Ivox	*Ivox
*I"Bassus	*I"Tenor	*I"Cantus
*I'B	*I'T	*I'Cn
*clefF4	*clefGv2	*clefG2
*k[b-]	*k[b-]	*k[b-]
*M2/1	*M2/1	*M2/1
*met(C|)	*met(C|)	*met(C|)
=1-	=1-	=1-
1GG	0r	0r
[1D	.	.
=2	=2	=2
2D\]	0r	0r
4C/	.	.
4BB-/	.	.
1C	.	.
=3	=3	=3
2BB-/	1G	0r
1GG	.	.
.	[1d	.
2BB-/	.	.
=4	=4	=4
2AA/	2d\]	0r
2GG/	4c\	.
.	4B-\	.
1AA	1c	.
=5	=5	=5
0GG	2B-\	1g
.	1G	.
.	.	[1dd
.	2B-\	.
=6	=6	=6
2r	2A/	2dd\]
1G	2G/	4cc\
.	.	4b-\
.	1A	1cc
2F\	.	.
=7	=7	=7
2G\	1G	2b-\
1B-	.	1g
.	1r	.
4A\	.	2b-\
4G\	.	.
=8	=8	=8
2F\	0r	2a/
1G	.	2g/
.	.	1a
2F\	.	.
=9	=9	=9
4G\	2r	1g
4F\	.	.
4E\	1G	.
4D\	.	.
2C/	.	1r
2D\	2F/	.
=10	=10	=10
2E\	2G/	0r
1D	1B-	.
4C/	4A/	.
4BB-/	4G/	.
=11	=11	=11
2AA/	2F/	0r
2GG/	1G	.
1AA	.	.
.	2F#i/	.
=12	=12	=12
1GG	1G	2r
.	.	1g
1r	2c\	.
.	2d\	2f/
=13	=13	=13
2r	2e\	2g/
2GG/	1d	1b-
2BB-/	.	.
2C/	4c\	4a/
.	4B-\	4g/
=14	=14	=14
2D\	2A/	2f/
2E\	2G/	1g
1D	1A	.
.	.	2f#i/
=15	=15	=15
2r	0G	1g
2GG/	.	.
2C/	.	2.e/
2D\	.	.
.	.	4f/
=16	=16	=16
2E\	1r	2g/
2F\	.	2a/
1E	2G/	1g
.	2c\	.
=17	=17	=17
2r	2d\	2f/
2AA/	2c\	2.a/
2D\	2f\	.
.	.	4b-\
2E\	4e\	[2cc\
.	4d\	.
=18	=18	=18
2F\	2c\	4cc\]
.	.	4f/
2G\	2B-\	1b-
1F	1c	.
.	.	2a/
=19	=19	=19
2r	2B-\	1b-
2BB-/	2d\	.
2C/	2c\	2g/
[2D\	[2A/	2f/
=20	=20	=20
4D\]	2A/]	1a
4C/	.	.
2AA/	2c\	.
2BB-/	2B-\	2f/
[2C/	[2G/	2e/
=21	=21	=21
4C/]	2G/]	1g
4BB-/	.	.
2GG/	1B-	.
2r	.	1f
2F\	2A/	.
=22	=22	=22
2G\	2B-\	2d/
2.A\	1c	2c/
.	.	1e
4G\	.	.
2E\	2B-\	.
=23	=23	=23
2F\	2A/	1d
2.G\	2.B-\	.
.	.	2B-/
4F\	4A/	.
2D\	2F/	2A/
=24	=24	=24
2r	2E/	1c
2A\	2F/	.
2B-\	1G	2G/
[2G\	.	2B-/
=25	=25	=25
2G\]	1D	1A
2F\	.	.
2G\	2r	1G
2B-\	[2G/	.
=26	=26	=26
1A	2G/]	2r
.	2F/	2c/
1G	2G/	2B-/
.	[2B-\	[2d/
=27	=27	=27
2r	4B-\]	2d/]
.	4A/	.
2E\	2G/	4c/
.	.	4B-/
2F\	2A/	2.A/
[2D\	2F/	.
.	.	4B-/
=28	=28	=28
2D\]	1E	4c/
.	.	4d/
2C/	.	2e/
2D\	1D	2f/
2F\	.	[2d/
=29	=29	=29
1E	1G	2d/]
.	.	2c#i/
1D	1A	1d
=30	=30	=30
2r	2B-\	0r
2AA/	2c\	.
2BB-/	2.d\	.
[2GG/	.	.
.	4c\	.
=31	=31	=31
2GG/]	2B-\	1r
2FF/	2.A/	.
2GG/	.	1g
.	4G/	.
2BB-/	[2G/	.
=32	=32	=32
1AA	2G/]	1a
.	2F/	.
1GG	2G/	2b-\
.	2A/	2cc\
=33	=33	=33
2r	2.B-\	2.dd\
1G	.	.
.	4c\	4cc\
.	2d\	2b-\
2A\	[2c\	[2a/
=34	=34	=34
2F\	2c\]	4a/]
.	.	4g/
2G\	2B-\	1g
1D	1A	.
.	.	2f#i/
=35	=35	=35
2r	1G	1g
1C	.	.
.	2A/	2r
2D\	[2B-\	[2d/
=36	=36	=36
2BB-/	2B-\]	2d/]
2C/	2G/	1g
1GG	2.B-\	.
.	.	4f/
.	4c\	4e/
=37	=37	=37
1D;	1A;	1f;
1GG	2r	2g/
.	[2D/	[2b-\
=38	=38	=38
0GG	2D/]	2b-\]
.	1G	2g/
.	.	2b-\
.	4F/	2cc\
.	4E/	.
=39	=39	=39
0r	1F	1a
.	2G/	1g
.	[2B-\	.
=40	=40	=40
0r	2B-\]	2r
.	2G/	1dd
.	2B-\	.
.	2c\	2g/
=41	=41	=41
0r	1A	2a/
.	.	2cc\
.	1G	1b-
=42	=42	=42
0r	2r	1a
.	1d	.
.	.	2.dd\
.	2G/	.
.	.	4cc\
=43	=43	=43
0r	2A/	4b-\
.	.	4a/
.	2c\	1a
.	1B-	.
.	.	2g/
=44	=44	=44
2r	1A	1a
2.D\	.	.
.	1d	2r
4E\	.	.
4F\	.	2f/
4D\	.	.
=45	=45	=45
2E\	1c	2g/
2.F\	.	2.a/
.	1A	.
4G\	.	4b-\
4A\	.	2cc\
4F\	.	.
=46	=46	=46
2G\	1B-	2b-\
2.GG/	.	2.dd\
.	1G	.
4AA/	.	4cc\
4BB-/	.	2b-\
4GG/	.	.
=47	=47	=47
2AA/	1F	2a/
2.BB-/	.	1f
.	1B-	.
4C/	.	.
4D\	.	2d/
4BB-/	.	.
=48	=48	=48
2C/	1A	2e/
2.D\	.	2.f/
.	1d	.
4E\	.	4g/
4F\	.	4a/
4D\	.	4f/
=49	=49	=49
2E\	1.c	2g/
2.F\	.	2.a/
4G\	.	4b-\
4A\	2A/	2cc\
4F\	.	.
=50	=50	=50
2G\	2B-\	2b-\
2C/	2c\	1g
1D	1A	.
.	.	2f#i/
=51	=51	=51
0GGl	0Gl	0gl
==	==	==
*-	*-	*-
!!!RDF**kern: l=long note in original notation
!!!RDF**kern: i=editorial accidental
!!!ENC:	Chris Gage 11-06-2014
!!!END:	2015/03/02/
!!!EED:	Jesse Rodin
!!!EEV:	2015/03/05/
!!!ONB:	Translated from MusicXML and edited on 2015/03/05/ by Craig Sapp
!!muse2ps: C^@{COM}^i2I150v85,85,150Q16
